src/assets/icons/sax/IconTrash.svg

<svg width="20" height="20" viewBox="0 0 24 24" fill="none" xmlns="http://www.w3.org/2000/svg">
<path d="M21 5.97998C17.67 5.64998 14.32 5.47998 10.98 5.47998C9 5.47998 7.02 5.57998 5.04 5.77998L3 5.97998" stroke="currentColor" stroke-width="1.5" stroke-linecap="round" stroke-linejoin="round"/>
<path d="M8.5 4.97L8.72 3.66C8.88 2.71 9 2 10.69 2H13.31C15 2 15.13 2.75 15.28 3.67L15.5 4.97" stroke="currentColor" stroke-width="1.5" stroke-linecap="round" stroke-linejoin="round"/>
<path d="M18.85 9.14001L18.2 19.21C18.09 20.78 18 22 15.21 22H8.79002C6.00002 22 5.91002 20.78 5.80002 19.21L5.15002 9.14001" stroke="currentColor" stroke-width="1.5" stroke-linecap="round" stroke-linejoin="round"/>
<path d="M10.33 16.5H13.66" stroke="currentColor" stroke-width="1.5" stroke-linecap="round" stroke-linejoin="round"/>
<path d="M9.5 12.5H14.5" stroke="currentColor" stroke-width="1.5" stroke-linecap="round" stroke-linejoin="round"/>
</svg>

<svg xmlns="http://www.w3.org/2000/svg" width="20" height="20" fill="none" viewBox="0 0 24 24">
  <path stroke="currentcolor" stroke-linecap="round" stroke-linejoin="round" stroke-width="1.5" d="M21 5.98q-5-.5-10.02-.5-2.97 0-5.94.3L3 5.98m5.5-1.01.22-1.31C8.88 2.71 9 2 10.69 2h2.62c1.69 0 1.82.75 1.97 1.67l.22 1.3m3.35 4.17-.65 10.07C18.09 20.78 18 22 15.21 22H8.79C6 22 5.91 20.78 5.8 19.21L5.15 9.14m5.18 7.36h3.33m-4.16-4h5"/>
</svg>
